X:1
T: The Merry Girls of Dublin
C:
R:Jig
Q:180
K:G
M:6/8
L:1/16
|:D2|G4G2 G4G2|F4E2 D4F2|G4G2 G4A2|B6d4D2|
G4G2 G4G2|F4E2 D4F2|B2d2B2 A2F2D2|E4F2G4:|
|:D2|G4B2 B2d2B2|B2d2B2 B2A2G2|F4A2 A2B2A2|A2B2A2 A2G2F2|
G4B2 B2d2B2|B2d2B2 B2A2G2|d2c2B2 A2F2D2|E4F2G4:|
